resources/svg/arrows-horizontal-expand.svg

<svg xmlns="http://www.w3.org/2000/svg" fill="none" viewBox="0 0 14 14"><path fill="currentColor" fill-rule="evenodd" d="M9.44536 4.73659C10.2857 4.73659 10.7619 3.75206 10.2092 3.09656C9.29443 2.01165 8.62091 1.36296 7.47265 0.430881C7.1972 0.207284 6.80275 0.207284 6.5273 0.430881C5.37904 1.36296 4.70552 2.01165 3.79077 3.09656C3.23809 3.75206 3.71423 4.73659 4.55459 4.73659L9.44536 4.73659ZM13.75 7.01479C13.75 7.429 13.4142 7.76479 13 7.76479H1C0.585787 7.76479 0.25 7.429 0.25 7.01479C0.25 6.60058 0.585787 6.26479 1 6.26479H13C13.4142 6.26479 13.75 6.60058 13.75 7.01479ZM4.55464 9.2632C3.71427 9.2632 3.23814 10.2477 3.79082 10.9032C4.70558 11.9882 5.37911 12.6369 6.52738 13.5689C6.80283 13.7925 7.19728 13.7925 7.47273 13.5689C8.621 12.6368 9.29453 11.9882 10.2093 10.9032C10.762 10.2477 10.2858 9.2632 9.44547 9.2632L4.55464 9.2632Z" clip-rule="evenodd"></path></svg>

<svg xmlns="http://www.w3.org/2000/svg" fill="none" viewBox="0 0 14 14"><path fill="currentColor" fill-rule="evenodd" d="M9.445 4.737c.84 0 1.317-.985.764-1.64C9.294 2.012 8.621 1.363 7.473.43a.75.75 0 0 0-.946 0c-1.148.932-1.821 1.58-2.736 2.666-.553.655-.077 1.64.764 1.64h4.89Zm4.305 2.278a.75.75 0 0 1-.75.75H1a.75.75 0 0 1 0-1.5h12a.75.75 0 0 1 .75.75ZM4.555 9.263c-.84 0-1.317.985-.764 1.64.915 1.085 1.588 1.734 2.736 2.666a.75.75 0 0 0 .946 0c1.148-.932 1.822-1.58 2.736-2.666.553-.655.077-1.64-.764-1.64h-4.89Z" clip-rule="evenodd"/></svg>
